X:7
T:Mui\~neira De Chao
R:muineira
H:Original key C
O:Galicia
Z:id:hn-muineira-7
M:6/8
L:1/8
K:D
DEF | DEF DEF | ~G3 EFG | EFG EFG | ~A3 DEF |
DEF DEF | ~G3 EFG | ABA GFE | D3 :|
|: DED | B3- BFG | A3- AEF | ~G3 GFE | ~A3 DED |
B3- BFG | A3- AEF | ~G3 GFE | D3 :|

